public/images/flags/EE.svg

<svg width="21" height="15" viewBox="0 0 21 15" fill="none" xmlns="http://www.w3.org/2000/svg">
<path d="M1.99498 0C1.73222 0.000261042 1.47212 0.0523746 1.22954 0.153351C0.98696 0.254327 0.766677 0.402179 0.581345 0.58844C0.396014 0.7747 0.249253 0.995704 0.149491 1.23878C0.049729 1.48187 -0.00106722 1.74225 -1.44837e-05 2.005V5H21V2.005C20.9997 1.47505 20.7898 0.966732 20.416 0.591064C20.0422 0.215397 19.5349 0.00290595 19.005 0H1.99498Z" fill="#45B2E8"/>
<path d="M0 9V13.002C0.00105383 13.5311 0.211475 14.0382 0.585297 14.4126C0.959118 14.787 1.46594 14.9982 1.995 15H19.005C19.5343 14.9989 20.0416 14.788 20.4156 14.4134C20.7895 14.0389 20.9997 13.5313 21 13.002V9H0Z" fill="#F6F9FC"/>
<path opacity="0.2" d="M19 15H2C1.46957 15 0.960858 14.7893 0.585785 14.4142C0.210712 14.0391 0 13.5304 0 13V7H1V13C1 13.2652 1.10537 13.5196 1.29291 13.7071C1.48044 13.8946 1.73478 14 2 14H19C19.2652 14 19.5196 13.8946 19.7071 13.7071C19.8946 13.5196 20 13.2652 20 13V7H21V13C21 13.5304 20.7893 14.0391 20.4142 14.4142C20.0391 14.7893 19.5304 15 19 15Z" fill="#8898AA"/>
<path d="M0 5H21V10H0V5Z" fill="black"/>
</svg>

<svg width="21" height="15" fill="none" xmlns="http://www.w3.org/2000/svg"><path d="M1.995 0A1.997 1.997 0 0 0 0 2.005V5h21V2.005A2.006 2.006 0 0 0 19.005 0H1.995z" fill="#45B2E8"/><path d="M0 9v4.002A2.002 2.002 0 0 0 1.995 15h17.01A2 2 0 0 0 21 13.002V9H0z" fill="#F6F9FC"/><path opacity=".2" d="M19 15H2a2 2 0 0 1-2-2V7h1v6a1 1 0 0 0 1 1h17a1 1 0 0 0 1-1V7h1v6a2 2 0 0 1-2 2z" fill="#8898AA"/><path d="M0 5h21v5H0V5z" fill="#000"/></svg>
